X:1
T:Bei da Lindn
B: "Unsere Lieder", Sepp Dengg, Mayrische Buchhandlung Otto Neugebauer, Salzburg 1964
Z:abc transcription Simon Wascher
F:http://simonwascher.info/
M:3/4
L:1/8
K:G
DB |\
B2A2Dc | c2B2DB | B2A2Dc | c2B2 ||\
BB |\
cee2d>c | cBgd B>d | d3 cc2 | B4BB |
cee2d>c | cBgd B>d | d3 cc2 | B4 |]
